X:1
T: Miss Jean Stewart
C:
R:Strathspey
Q: 128
K:A
M:4/4
L:1/16
|:CA,3 A3c B2A2 F4|AE3 A3c e3f e3c|d3e fedc dcBA F4|AE3 F3E A2E2 A2c2|
CA,3 A3c B2A2 F4|AE3 A3c e3f e3c|d3e fedc dcBA F4|A3B c3B AE3 Ac3|
e3f e2c2 dcBA F4|e3f e2c2 ea3 ec3|d3e fedc dcBA F4|A3E F3E A2E2 A2C2|
e3f e2c2 dcBA F4|e3f e2c2 ea3 ec3|d3e fedc dcBA F4|A3B c3B AE3 Cc3:|
